images/icon-checkbox.svg

<svg width="20" height="20" viewBox="0 0 20 20" fill="none" xmlns="http://www.w3.org/2000/svg">
<path d="M14.4205 6.82693C14.7256 7.13211 14.7256 7.6268 14.4205 7.93182L9.17938 13.1731C8.87421 13.4781 8.37967 13.4781 8.07449 13.1731L5.57953 10.6779C5.27435 10.3729 5.27435 9.87823 5.57953 9.57321C5.88455 9.26804 6.37924 9.26804 6.68427 9.57321L8.62686 11.5158L13.3156 6.82693C13.6208 6.52191 14.1154 6.52191 14.4205 6.82693ZM20 10C20 15.5275 15.5267 20 10 20C4.4725 20 0 15.5267 0 10C0 4.4725 4.47327 0 10 0C15.5275 0 20 4.47327 20 10ZM18.4375 10C18.4375 5.33615 14.6632 1.5625 10 1.5625C5.33615 1.5625 1.5625 5.33676 1.5625 10C1.5625 14.6638 5.33676 18.4375 10 18.4375C14.6638 18.4375 18.4375 14.6632 18.4375 10Z" fill="#F4A641"/>
</svg>

<svg version="1.2" xmlns="http://www.w3.org/2000/svg" viewBox="0 0 20 20" width="20" height="20">
	<title>icon-checkbox-svg</title>
	<style>
		.s0 { fill: #2a59c1 } 
	</style>
	<path fill-rule="evenodd" class="s0" d="m20 10c0 5.5-4.5 10-10 10-5.5 0-10-4.5-10-10 0-5.5 4.5-10 10-10 5.5 0 10 4.5 10 10zm-1.6 0c0-4.7-3.7-8.4-8.4-8.4-4.7 0-8.4 3.7-8.4 8.4 0 4.7 3.7 8.4 8.4 8.4 4.7 0 8.4-3.7 8.4-8.4zm-4-3.2c0.3 0.3 0.3 0.8 0 1.1l-5.2 5.3c-0.3 0.3-0.8 0.3-1.1 0l-2.5-2.5c-0.3-0.3-0.3-0.8 0-1.1 0.3-0.3 0.8-0.3 1.1 0l1.9 1.9 4.7-4.7c0.3-0.3 0.8-0.3 1.1 0z"/>
</svg>
